X: 23
T: Vesivehmaan jenkka
C: Yrj\"o Saarnio
R: shottish
M: 4/4
L: 1/8
K: F
|: "F"AA AG "Bb"FF FD | "F"CC CA, C2 F2 \
| "C7"EE EF G2 GB | "F"AB AG F2 C2 \
|  "F"AA AG "Bb"FF FD | "F"CC CF  A2 Ac |
  "C7"CC CE G2 AG | "F"F2 F2 F2 "fine"z2 \
:: "Dm"DF Ad Ad fa | "Gm"Bd ba g2 g2 \
| "A7"ab ag e^c eg | ag Af "Dm"~e2 d2 |
   "Dm"DF Ad Ad fa | "Gm"Bd ba g2 g2 \
| "A7"a2 ag e^c fe | "Dm"d2 d2 d2 z2 \
:: "F"ag fe dc BA | "Gm"cB dB G2 GG |
  "C7"gf ed c2 cf | "F"ag fe ~d2 c2 \
|  "F"ag fe dc BA | "Gm"cB dB G2 Gf \
| "C7"e2 ed GB AG | "F"F2 A2 F2 z2 :|
%%sep 1 1 10cm
